static/assets/images/networks/xrpl-evm-mono.svg

<svg width="365" height="256" viewBox="0 0 365 256" fill="none" xmlns="http://www.w3.org/2000/svg">
<path d="M201.915 138.973C225.728 138.973 248.828 147.376 266.42 163.845L365 256H317.731L242.982 186.148C231.987 175.906 217.327 170.429 201.934 170.429C186.541 170.429 171.881 175.906 160.886 186.148L86.1374 256H38.8678L137.448 163.845C155.04 147.395 178.12 138.973 201.953 138.973H201.915ZM201.915 117.046C178.102 117.046 155.003 108.643 137.411 92.1737L38.849 0H86.1186L160.867 69.8522C171.862 80.0939 186.522 85.571 201.915 85.571C217.308 85.571 231.969 80.0939 242.964 69.8522L317.712 0H364.981L266.401 92.1549C248.809 108.605 225.728 117.027 201.896 117.027L201.915 117.046Z" fill="black"/>
<path d="M119.462 128.02L16.4833 215.054C8.79608 221.994 0 218.711 0 208.47V47.5507C0 37.3092 8.79608 34.0266 16.4833 40.9669L119.462 128.001V128.02Z" fill="black"/>
</svg>

<svg xmlns="http://www.w3.org/2000/svg" fill="none" viewBox="0 0 365 256"><path fill="#000" d="M201.915 138.973c23.813 0 46.913 8.403 64.505 24.872L365 256h-47.269l-74.749-69.852c-10.995-10.242-25.655-15.719-41.048-15.719s-30.053 5.477-41.048 15.719L86.137 256h-47.27l98.581-92.155c17.592-16.45 40.672-24.872 64.505-24.872zm0-21.927c-23.813 0-46.912-8.403-64.504-24.872L38.849 0h47.27l74.748 69.852c10.995 10.242 25.655 15.719 41.048 15.719s30.054-5.477 41.049-15.719L317.712 0h47.269l-98.58 92.155c-17.592 16.45-40.673 24.872-64.505 24.872zm-82.453 10.974L16.483 215.054C8.796 221.994 0 218.711 0 208.47V47.55c0-10.24 8.796-13.523 16.483-6.583L119.462 128z"/></svg>
